X: 41184
T: Tripping Up The Stairs
R: jig
M: 6/8
K: Dmajor
|:FAA GBB|FAd fed|cBc ABc|dfe dAG|
FAA GBB|FAd fed|cBc ABc|dfe d2 c:|
|:dBB fBB|fgf fed|cAA eAA|efe edc|
dBB fBB|fgf fed|cBc ABc|dfe d3:|

